X:1
T:Königsberg, 10.9.10.9 D
T:Königsberg, 10.9.10.9 D
T:Phoebe Palmer Knapp, 1892
T:Public Domain Courtesy of the Cyber Hymnal™
C:Phoebe Palmer Knapp, 1892
Z:Public Domain
Z:Courtesy of the Cyber Hymnal™
%%score ( 1 2 ) ( 3 4 )
L:1/8
Q:1/4=100
M:9/8
K:C
V:1 treble 
V:2 treble 
V:3 bass 
V:4 bass 
V:1
 [EG]>[DF][CE] [EG]3 [EG]2 z | [FA]>[FG]F [FA]3 [FA]2 z | [^Fc][FB][FA] [=FB]3 [FA]3 | %3
 [FA][EG][^D^F] [EG]3- [EG]2 z | [DG][D^F][DG] [DB]3 [DG]3 | [DG][D^F][DG] [Gd]3 [GB]3 | %6
 [Ge][Gd][^FB] G3 [GA]3 | [GB]D[^FA] G3- G2 z | [B,D][B,D][CE] [B,F]3 [B,F]3 | %9
 [Fd][FB][FG] A3 [EG]3 | [B,D][B,D][CE] [B,F]3 [B,F]3 | [Fd][FB][FG] [Ec]3- [Ec]2 z | %12
 CEG [Cc]3 [Ec]3 | CEG [^GB]3 A2 z | [DA][EA][^DA] [EG]3 [CE]3 | [B,D][CE][DF] [CE]6 |] %16
V:2
 x9 | x2 F x6 | x9 | x9 | x9 | x9 | x3 G3 x3 | x D G3- G2 x2 | x9 | x3 E2 ^D x3 | x9 | x9 | %12
 CEG x6 | CE^G x2 A2 x2 | x9 | x9 |] %16
V:3
 [C,C]>[C,G,][C,G,] [C,C]3 [C,C]2 z | [F,C]>[F,_B,][F,A,] [F,C]3 [F,C]2 z | %2
 [D,D][D,D][D,D] [G,D]3 [G,B,]3 | [C,C][C,C][C,A,] [C,C]3- [C,C]2 z | %4
 [G,B,][G,A,][G,B,] [G,D]3 [G,B,]3 | B,[A,C][G,B,] [G,B,]3 [G,D]3 | %6
 [^C,_B,][D,=B,][^D,B,] [E,B,]3 [_E,^C]3 | [D,D][D,B,][D,C] [G,B,]3- [G,B,]2 z | %8
 G,[F,G,][E,G,] [D,G,]3 [G,,G,]3 | [G,B,][G,D][G,B,] C2 ^F, [C,G,]3 | %10
 G,[F,G,][E,G,] [D,G,]3 [G,,G,]3 | [G,B,][G,D][G,B,] [C,C-]3 [C,C]2 z | C,E,G, [C,C]3 [C,G,]3 | %13
 C,E,G, [E,C]3 [F,C]2 z | [F,C][F,C][^F,C] [G,C]3 G,3 | [G,,G,][G,,G,][G,,G,] [C,G,]6 |] %16
V:4
 x9 | x9 | x9 | x9 | x9 | B, x8 | x9 | x9 | G, x8 | x3 C,3 x3 | G, x8 | x9 | C,E,G, x6 | %13
 C,E,G, x6 | x6 G,3 | x9 |] %16

